static/assets/images/exchanges/oku.svg

<svg width="268" height="256" viewBox="0 0 268 256" fill="none" xmlns="http://www.w3.org/2000/svg">
<path fill-rule="evenodd" clip-rule="evenodd" d="M268 128C268 198.935 207.755 256 134 256C62.2213 256 3.22842 201.726 0.118768 133.445C0.118768 133.445 0 129.824 0 128C0 57.0645 60.2449 0 134 0C207.755 0 268 57.0645 268 128ZM133.59 174.074C137.132 172.451 139.616 169.217 140.217 165.444C140.817 161.673 139.456 157.857 136.584 155.263C130.087 149.393 125.078 143.501 123.647 138.075C122.323 133.06 121.904 127.466 122.516 121.483C124.191 121.177 125.969 120.845 127.837 120.497C145.429 117.213 171.094 112.422 194.811 113.22C209.677 113.719 221.857 116.43 230.034 121.776C237.192 126.456 242.362 133.822 242.614 147.169C233.155 195.869 188.316 233.04 134 233.04C87.421 233.04 47.8121 205.705 31.5076 167.205C49.088 178.818 67.1228 183.268 83.2919 183.89C108.01 184.841 127.524 176.852 133.59 174.074ZM134 22.9596C72.7469 22.9596 23.5475 70.2306 23.5475 128C23.5475 128.311 23.5489 128.621 23.5518 128.932C43.9631 153.38 66.1529 160.253 84.2207 160.949C93.2429 161.296 101.437 160.1 108.066 158.517C104.951 154.175 102.278 149.236 100.842 143.796C97.9635 132.887 98.0326 121.113 100.714 109.378C101.728 104.941 105.251 101.681 109.503 100.7C110.333 100.363 111.216 100.114 112.142 99.9674C114.638 99.5707 117.973 98.9432 121.963 98.1925C139.256 94.9388 168.838 89.3728 195.622 90.2728C211.255 90.7988 227.646 93.5128 240.839 101.274C228.43 56.3372 185.47 22.9596 134 22.9596Z" fill="white"/>
</svg>

<svg xmlns="http://www.w3.org/2000/svg" fill="none" viewBox="0 0 268 256"><path fill="#fff" fill-rule="evenodd" d="M268 128c0 70.935-60.245 128-134 128C62.221 256 3.228 201.726.119 133.445c0 0-.119-3.621-.119-5.445C0 57.065 60.245 0 134 0s134 57.065 134 128m-134.41 46.074c3.542-1.623 6.026-4.857 6.627-8.63.6-3.771-.761-7.587-3.633-10.181-6.497-5.87-11.506-11.762-12.937-17.188-1.324-5.015-1.743-10.609-1.131-16.592 1.675-.306 3.453-.638 5.321-.986 17.592-3.284 43.257-8.075 66.974-7.277 14.866.499 27.046 3.21 35.223 8.556 7.158 4.68 12.328 12.046 12.58 25.393-9.459 48.7-54.298 85.871-108.614 85.871-46.579 0-86.188-27.335-102.492-65.835 17.58 11.613 35.615 16.063 51.784 16.685 24.718.951 44.232-7.038 50.298-9.816M134 22.96C72.747 22.96 23.548 70.23 23.548 128q-.001.466.004.932c20.411 24.448 42.6 31.321 60.669 32.017 9.022.347 17.216-.849 23.845-2.432-3.115-4.342-5.788-9.281-7.224-14.721-2.879-10.909-2.81-22.683-.128-34.418 1.014-4.437 4.537-7.697 8.789-8.678.83-.337 1.713-.586 2.639-.733 2.496-.396 5.831-1.024 9.821-1.775 17.293-3.253 46.875-8.82 73.659-7.92 15.633.527 32.024 3.24 45.217 11.002C228.43 56.337 185.47 22.96 134 22.96" clip-rule="evenodd"/></svg>
